res/tubeunit_seal.svg

<?xml version='1.0' encoding='utf-8'?>
<svg xmlns="http://www.w3.org/2000/svg" width="60.96mm" height="128.5mm" viewBox="0 0 60.96 128.5">
  <title>SEAL</title>
  <g style="stroke:#000000;stroke-width:0.25;stroke-linecap:round;stroke-linejoin:bevel">
    <path d="m 17.020170,17.293323 q -0.261055,0 -0.4550823,-0.08819 Q 16.371060,17.113406 16.180560,16.922907 16.159394,16.901740 16.159394,16.869990 q 0,-0.028222 0.024694,-0.052916 0.024694,-0.028222 0.052916,-0.028222 0.03175,0 0.059972,0.03175 0.1375831,0.1622775 0.3245549,0.2469439 0.1904996,0.084667 0.398638,0.084667 0.2716383,0 0.4480268,-0.1305278 Q 17.644585,16.891157 17.644585,16.675963 17.641057,16.506630 17.552863,16.397269 17.464669,16.287908 17.334141,16.224408 17.207141,16.157381 16.984892,16.076242 16.741476,15.984520 16.603893,15.913964 16.469838,15.843409 16.371060,15.712882 16.275810,15.582354 16.275810,15.370688 q 0,-0.1728607 0.09525,-0.3139715 0.09525,-0.1411108 0.2716383,-0.2222495 0.1763885,-0.081139 0.4092213,-0.081139 0.2081385,0 0.3951103,0.077611 0.1869718,0.074083 0.2963327,0.2116662 0.035278,0.049389 0.035278,0.074083 0,0.028222 -0.028222,0.052917 -0.024694,0.021167 -0.056444,0.021167 -0.028222,0 -0.045861,-0.021167 Q 17.549335,15.042605 17.394113,14.968522 17.238891,14.894439 17.051920,14.894439 q -0.2681105,0 -0.4480268,0.1269997 -0.1763885,0.1269997 -0.1763885,0.3457215 0,0.1516941 0.084666,0.2575272 0.088194,0.1058331 0.2187217,0.1728607 0.1305275,0.0635 0.3245549,0.1340553 0.2469439,0.088194 0.3915825,0.1622774 0.1446385,0.074083 0.2469439,0.215194 0.1023053,0.1411108 0.1023053,0.3739436 0,0.1622774 -0.09525,0.3033882 -0.09525,0.1411105 -0.2751661,0.2257775 -0.1763885,0.08114 -0.4056935,0.08114 z" />
    <path d="m 19.729494,17.116934 q 0.028222,0 0.049389,0.02117 0.021167,0.02117 0.021167,0.04939 0,0.03175 -0.021167,0.05292 -0.021167,0.01764 -0.049389,0.01764 H 18.399525 q -0.028222,0 -0.049389,-0.02117 -0.021167,-0.02117 -0.021167,-0.04939 V 14.859161 q 0,-0.028222 0.021167,-0.049389 0.021167,-0.021167 0.049389,-0.021167 h 1.3299693 q 0.028222,0 0.049389,0.021167 0.021167,0.021167 0.021167,0.049389 0,0.03175 -0.021167,0.052916 -0.021167,0.017639 -0.049389,0.017639 H 18.477136 V 15.913964 h 1.0936087 q 0.028222,0 0.049389,0.021167 0.021167,0.021167 0.021167,0.049389 0,0.03175 -0.021167,0.052917 -0.021167,0.017639 -0.049389,0.017639 H 18.477136 v 1.061859 z" />
    <path d="m 22.138959,17.162795 q 0.00353,0.01058 0.00353,0.02822 0,0.03175 -0.021167,0.04939 -0.021167,0.01764 -0.052917,0.01764 -0.024694,0 -0.045861,-0.01058 -0.017639,-0.01411 -0.024694,-0.03528 L 21.701516,16.485463 l 0.00353,0.00706 H 20.523241 L 20.237491,17.212184 q -0.017639,0.04586 -0.0635,0.04586 -0.03175,0 -0.052916,-0.01764 -0.017639,-0.01764 -0.021167,-0.04233 -0.00353,-0.01411 0.00353,-0.03528 L 21.052406,14.827411 q 0.010583,-0.028222 0.024694,-0.035278 0.017639,-0.010583 0.042333,-0.010583 0.052917,0 0.070555,0.045861 z M 20.579685,16.351408 H 21.648599 L 21.108851,15.021439 Z" />
    <path d="m 23.983977,17.116934 q 0.02822,0 0.04939,0.02117 0.02117,0.02117 0.02117,0.04939 0,0.03175 -0.02117,0.05292 -0.02117,0.01764 -0.04939,0.01764 H 22.689285 q -0.03175,0 -0.052917,-0.02117 -0.017639,-0.02117 -0.017639,-0.04939 V 14.859161 q 0,-0.028222 0.021167,-0.049389 0.021167,-0.021167 0.052917,-0.021167 0.03175,0 0.052917,0.021167 0.021167,0.021167 0.021167,0.049389 v 2.2577728 z" />
  </g>
</svg>

<?xml version="1.0" encoding="utf-8"?>
<svg xmlns="http://www.w3.org/2000/svg" width="60.96mm" height="128.50mm" viewBox="0 0 60.96 128.50">
    <path d="M16.2089 16.9137Q16.1877 16.8925 16.1877 16.8608Q16.1877 16.8326 16.2124 16.8061Q16.2371 16.7796 16.2653 16.7796Q16.2971 16.7796 16.3253 16.8114Q16.4629 16.9737 16.6516 17.0583Q16.8403 17.143 17.0485 17.143Q17.3201 17.143 17.4965 17.0125Q17.6729 16.8819 17.6729 16.6668Q17.6694 16.4974 17.5812 16.3881Q17.493 16.2787 17.3642 16.2134Q17.2354 16.1482 17.0132 16.067Q16.7698 15.9753 16.634 15.9047Q16.4981 15.8342 16.4011 15.7037Q16.3041 15.5731 16.3041 15.3615Q16.3041 15.1886 16.3994 15.0475Q16.4946 14.9064 16.671 14.8253Q16.8474 14.7441 17.0802 14.7441Q17.2884 14.7441 17.4753 14.82Q17.6623 14.8958 17.7717 15.0334Q17.8069 15.0828 17.8069 15.1075Q17.8069 15.1357 17.7805 15.1586Q17.754 15.1816 17.7223 15.1816Q17.6941 15.1816 17.6764 15.1604Q17.5776 15.0334 17.4224 14.9593Q17.2672 14.8852 17.0802 14.8852Q16.8121 14.8852 16.634 15.0122Q16.4558 15.1392 16.4558 15.3579Q16.4558 15.5096 16.5422 15.6155Q16.6287 15.7213 16.7592 15.7866Q16.8897 15.8518 17.0838 15.9224Q17.3307 16.0106 17.4753 16.0847Q17.62 16.1588 17.7223 16.2999Q17.8246 16.441 17.8246 16.6738Q17.8246 16.8361 17.7293 16.9772Q17.6341 17.1183 17.4559 17.2012Q17.2778 17.2841 17.0485 17.2841Q16.7874 17.2841 16.5934 17.1942Q16.3994 17.1042 16.2089 16.9137ZM19.8284 17.1783Q19.8284 17.21 19.8072 17.2294Q19.786 17.2488 19.7578 17.2488H18.4278Q18.3996 17.2488 18.3784 17.2277Q18.3573 17.2065 18.3573 17.1783V14.8499Q18.3573 14.8217 18.3784 14.8006Q18.3996 14.7794 18.4278 14.7794H19.7578Q19.786 14.7794 19.8072 14.8006Q19.8284 14.8217 19.8284 14.8499Q19.8284 14.8817 19.8072 14.9011Q19.786 14.9205 19.7578 14.9205H18.5054V15.9047H19.5991Q19.6273 15.9047 19.6484 15.9259Q19.6696 15.9471 19.6696 15.9753Q19.6696 16.0071 19.6484 16.0265Q19.6273 16.0459 19.5991 16.0459H18.5054V17.1077H19.7578Q19.786 17.1077 19.8072 17.1289Q19.8284 17.1501 19.8284 17.1783ZM22.1708 17.1818Q22.1708 17.2136 22.1496 17.2312Q22.1285 17.2488 22.0967 17.2488Q22.072 17.2488 22.0526 17.2365Q22.0332 17.2241 22.0262 17.203L21.7298 16.4763L21.7334 16.4833H20.5516L20.2658 17.203Q20.2482 17.2488 20.2023 17.2488Q20.1706 17.2488 20.1512 17.2312Q20.1318 17.2136 20.1282 17.1889Q20.1247 17.1747 20.1318 17.1536L21.0807 14.8182Q21.0913 14.79 21.1072 14.7812Q21.1231 14.7723 21.1478 14.7723Q21.2007 14.7723 21.2183 14.8182L22.1673 17.1536Q22.1708 17.1642 22.1708 17.1818ZM20.608 16.3422H21.6769L21.1372 15.0122ZM24.0829 17.1783Q24.0829 17.21 24.0617 17.2294Q24.0405 17.2488 24.0123 17.2488H22.7176Q22.6859 17.2488 22.6665 17.2277Q22.6471 17.2065 22.6471 17.1783V14.8499Q22.6471 14.8217 22.6682 14.8006Q22.6894 14.7794 22.7211 14.7794Q22.7529 14.7794 22.7741 14.8006Q22.7952 14.8217 22.7952 14.8499V17.1077H24.0123Q24.0405 17.1077 24.0617 17.1289Q24.0829 17.1501 24.0829 17.1783Z" style="stroke:#000000;stroke-width:0.25;stroke-linecap:round;stroke-linejoin:bevel" />
</svg>
